X: 9407
T: Daniel O'Rourke
R: jig
M: 6/8
K: Fmajor
|:A/G/|fcA AcA|fcA fag|fcA AcA|dBG G2e|
fcA AcA|fcA efg|agc gec|dBG G2:|
z|:c2a gec|gec efg|c2a gec|d=BG Bcd|
c2a gec|gec efg|afd gec|1 d=BG Bcd:|2 d=BG fag||

